X: 11458
T: Ebb Tide, The
R: hornpipe
M: 4/4
K: Gminor
|:d>c|B>dA>B G>AB>c|d2 G2 G2 b>g|f>dc>A B>cd>B|c>A (3BAG F2 d>c|
B2 A>B G2 (3ABc|d>=e (3fed g2 g>e|f>dc>B c>eA>c|B2 G2 G2:|
|:(3fga|b>gd>G g>Gd>G|D>G (3Bcd g>db>g|a>Bc>A f>Ac>A|D>Fc>F f>Fe>F|
(3Bcd A>B G2 (3ABc|d>=ef>d g>dg>e|f>dc>B c>eA>c|(3BdB G2 G2:|

